X:1
T: Miss Margaret Blair's Strathspey
C:
R:Strathspey
Q: 128
K:Bb
M:4/4
L:1/16
|:B,2|DF3 F3E DF3 F3D|EG3 G2cB AF3 F3E|DF3 F3B EG3 G3c|A2F2 fedc d2B2 B2B,2|
DF3 F3E DF3 F3D|EG3 G2cB AF3 F3E|DF3 F3B EG3 G3c|A2F2 fedc d2B2 B2f2|
db3 Bf3 db3 Bf3|Af3 Fc3 Af3 Fc3|db3 Bf3 db3 Bf3|ABc2 F3e dB3 B3f|
db3 Bf3 db3 Bf3|Af3 Fc3 Af3 F2A2|Ge3 EG3 Fd3 DF3|E2G2 Fe3 d2B2 B2:|
